icons/ancient-gate-line.svg

<svg xmlns="http://www.w3.org/2000/svg" width="24" height="24" fill="none"><g clip-path="url(#a)"><g><path fill="#121212" d="M18.901 10C19.296 10.6856 19.946 11.1872 20.7093 11.3957C21.4726 11.6042 22.2873 11.5026 22.976 11.113C23.057 11.8366 22.9103 12.5675 22.5562 13.2039C22.2022 13.8402 21.6586 14.3502 21.001 14.663L21 21H14V19C14.0002 18.4954 13.8096 18.0094 13.4665 17.6395C13.1234 17.2695 12.6532 17.0428 12.15 17.005L12 17C11.4954 16.9998 11.0094 17.1904 10.6394 17.5335C10.2695 17.8766 10.0428 18.3468 10.005 18.85L10 19V21H3V14.664C2.34115 14.3517 1.79628 13.8414 1.44148 13.2044C1.08669 12.5675 0.939684 11.8356 1.021 11.111C1.70963 11.5014 2.52467 11.6036 3.2884 11.3955C4.05213 11.1874 4.70261 10.6858 5.098 10H18.901ZM17.93 12H6.069L5.993 12.079C5.562 12.499 5.058 12.839 4.507 13.081L4.411 13.12L5 13.4L4.999 19L8.001 18.999V18.927L8.011 18.704C8.16 16.688 9.791 15.105 11.865 15.006L12.073 15.001L12.296 15.011C13.2681 15.0831 14.1804 15.5077 14.8616 16.2051C15.5427 16.9024 15.9458 17.8245 15.995 18.798L15.999 18.999L19 19L19.001 13.4L19.588 13.12L19.493 13.08C18.9415 12.8385 18.438 12.4994 18.007 12.079L17.93 12ZM17.036 3C17.1075 3.4961 17.2848 3.97105 17.5558 4.39272C17.8267 4.81438 18.1851 5.17293 18.6067 5.4441C19.0282 5.71527 19.5031 5.89273 19.9991 5.96448C20.4952 6.03624 21.0009 6.00061 21.482 5.86C21.3964 6.68858 21.018 7.45945 20.415 8.03408C19.812 8.60872 19.0237 8.94943 18.192 8.995L18 9H6C5.13397 9.00014 4.29864 8.6792 3.6555 8.09923C3.01236 7.51925 2.60707 6.72143 2.518 5.86C2.9991 6.00061 3.50479 6.03624 4.00086 5.96448C4.49693 5.89273 4.9718 5.71527 5.39334 5.4441C5.81488 5.17293 6.17327 4.81438 6.44424 4.39272C6.71522 3.97105 6.89247 3.4961 6.964 3H17.036ZM15.6 5H8.399C8.03872 5.70545 7.53049 6.32487 6.909 6.816L6.661 7H17.338L17.326 6.992C16.6828 6.53728 16.1444 5.95012 15.747 5.27L15.6 5Z"/></g></g><defs><clipPath id="a"><rect width="24" height="24" fill="white"/></clipPath></defs></svg>

<svg width="24" height="24" fill="none" xmlns="http://www.w3.org/2000/svg"><g clip-path="url(#a)"><path d="M18.901 10a2.999 2.999 0 0 0 4.075 1.113 3.5 3.5 0 0 1-1.975 3.55L21 21h-7v-2a2 2 0 0 0-1.85-1.995L12 17a2 2 0 0 0-1.995 1.85L10 19v2H3v-6.336a3.5 3.5 0 0 1-1.979-3.553A2.999 2.999 0 0 0 5.098 10h13.803Zm-.971 2H6.069l-.076.079c-.431.42-.935.76-1.486 1.002l-.096.039.589.28-.001 5.6 3.002-.001v-.072l.01-.223c.149-2.016 1.78-3.599 3.854-3.698l.208-.005.223.01a4 4 0 0 1 3.699 3.787l.004.201L19 19l.001-5.6.587-.28-.095-.04a5.001 5.001 0 0 1-1.486-1.001L17.93 12Zm-.894-9a3.5 3.5 0 0 0 4.446 2.86 3.5 3.5 0 0 1-3.29 3.135L18 9H6a3.5 3.5 0 0 1-3.482-3.14A3.5 3.5 0 0 0 6.964 3h10.072ZM15.6 5H8.399a5.507 5.507 0 0 1-1.49 1.816L6.661 7h10.677l-.012-.008a5.518 5.518 0 0 1-1.579-1.722L15.6 5Z" /></g><defs><clipPath id="a"><path fill="#fff" d="M0 0h24v24H0z"/></clipPath></defs></svg>
